src/assets/cards/8D.svg

<svg clip-rule="evenodd" fill-rule="evenodd" stroke-linejoin="round" stroke-miterlimit="2" viewBox="0 0 934 1300" xmlns="http://www.w3.org/2000/svg"><g fill="#d40000" fill-rule="nonzero"><path d="m141.695 236.304c41.346-40.329 68.492-84.322 94.459-126.621 22.755 46.551 55.433 87.27 90.77 126.621-37.809 39.038-67.099 80.785-90.67 124.665-26.105-44.984-53.602-85.715-94.559-124.665z"/><path d="m141.695 650.98c41.346-40.338 68.492-84.318 94.459-126.617 22.755 46.539 55.433 87.258 90.77 126.617-37.809 39.036-67.099 80.776-90.67 124.657-26.105-44.981-53.602-85.715-94.559-124.657z"/><path d="m141.695 1064.43c41.346-40.34 68.492-84.326 94.459-126.624 22.755 46.542 55.433 87.264 90.77 126.624-37.809 39.03-67.099 80.77-90.67 124.65-26.105-44.98-53.602-85.71-94.559-124.65z"/><path d="m374.052 443.84c41.334-40.329 68.48-84.31 94.446-126.609 22.768 46.539 55.446 87.258 90.783 126.609-37.809 39.038-67.112 80.785-90.67 124.665-26.117-44.984-53.602-85.715-94.559-124.665z"/><path d="m606.422 236.304c41.333-40.329 68.479-84.322 94.446-126.621 22.768 46.551 55.445 87.27 90.77 126.621-37.796 39.038-67.099 80.785-90.657 124.665-26.117-44.984-53.614-85.715-94.559-124.665z"/><path d="m606.422 650.98c41.333-40.338 68.479-84.318 94.446-126.617 22.768 46.539 55.445 87.258 90.77 126.617-37.796 39.036-67.099 80.776-90.657 124.657-26.117-44.981-53.614-85.715-94.559-124.657z"/><path d="m606.422 1064.43c41.333-40.34 68.479-84.326 94.446-126.624 22.768 46.542 55.445 87.264 90.77 126.624-37.796 39.03-67.099 80.77-90.657 124.65-26.117-44.98-53.614-85.71-94.559-124.65z"/><path d="m374.052 858.112c41.334-40.34 68.48-84.323 94.446-126.622 22.768 46.543 55.446 87.26 90.783 126.622-37.809 39.035-67.112 80.776-90.67 124.657-26.117-44.983-53.602-85.715-94.559-124.657z"/><path d="m39.729 273.335c16.935-16.521 28.049-34.534 38.687-51.871 9.333 19.068 22.717 35.752 37.194 51.871-15.493 15.994-27.497 33.092-37.144 51.068-10.7-18.428-21.965-35.112-38.737-51.068z"/><path d="m30.12 156.849c.665-18.227 7.377-25.076 20.598-34.61-10.537-7.489-14.99-18.49-14.087-27.873 2.17-22.692 20.046-34.045 39.514-33.556 19.482.502 36.278 15.681 37.583 32.176 1.141 14.351-3.211 21.263-13.573 28.814 12.306 10.174 20.171 16.872 19.87 34.836-.301 17.963-15.856 39.339-42.976 39.991-27.121.652-47.593-21.539-46.929-39.778zm75.718.063c1.166-16.509-13.699-27.648-30.47-27.811-16.346-.175-30.96 13.523-30.96 28.338 0 15.931 19.005 24.574 31.298 24.624 14.915.05 29.128-10.926 30.132-25.151zm-5.357-59.059c.314-13.899-12.745-23.871-26.205-23.47-11.98.364-24.674 9.346-24.687 20.962 0 14.551 14.426 21.801 26.745 22.077 11.164.251 23.896-9.057 24.147-19.569z"/><path d="m893.604 1026.66c-16.935 16.53-28.049 34.54-38.687 51.88-9.332-19.07-22.717-35.76-37.193-51.88 15.492-15.99 27.497-33.087 37.143-51.063 10.701 18.428 21.965 35.113 38.737 51.063z"/><path d="m903.213 1143.15c-.665 18.23-7.376 25.08-20.598 34.62 10.537 7.48 14.991 18.49 14.087 27.86-2.17 22.7-20.033 34.05-39.514 33.56-19.481-.5-36.278-15.68-37.583-32.17-1.141-14.35 3.212-21.26 13.573-28.82-12.306-10.17-20.171-16.87-19.87-34.83s15.856-39.33 42.977-39.99c27.12-.66 47.593 21.54 46.928 39.77zm-75.717-.06c-1.167 16.51 13.698 27.65 30.47 27.82 16.345.17 30.959-13.53 30.959-28.35 0-15.92-19.017-24.57-31.298-24.62-14.915-.05-29.14 10.93-30.131 25.15zm5.356 59.05c-.313 13.91 12.745 23.88 26.205 23.48 11.98-.36 24.675-9.34 24.675-20.97.025-14.54-14.426-21.8-26.732-22.07-11.165-.25-23.897 9.06-24.148 19.56z"/></g></svg>

<?xml version="1.0" encoding="UTF-8" standalone="no"?>
<!DOCTYPE svg PUBLIC "-//W3C//DTD SVG 1.1//EN" "http://www.w3.org/Graphics/SVG/1.1/DTD/svg11.dtd">
<svg width="100%" height="100%" viewBox="0 0 934 1300" version="1.1" xmlns="http://www.w3.org/2000/svg" xmlns:xlink="http://www.w3.org/1999/xlink" xml:space="preserve" xmlns:serif="http://www.serif.com/" style="fill-rule:evenodd;clip-rule:evenodd;stroke-linejoin:round;stroke-miterlimit:2;">
    <g id="_8D" serif:id="8D">
        <path d="M141.695,236.304C183.041,195.975 210.187,151.982 236.154,109.683C258.909,156.234 291.587,196.953 326.924,236.304C289.115,275.342 259.825,317.089 236.254,360.969C210.149,315.985 182.652,275.254 141.695,236.304Z" style="fill:rgb(212,0,0);fill-rule:nonzero;"/>
        <path d="M141.695,650.98C183.041,610.642 210.187,566.662 236.154,524.363C258.909,570.902 291.587,611.621 326.924,650.98C289.115,690.016 259.825,731.756 236.254,775.637C210.149,730.656 182.652,689.922 141.695,650.98Z" style="fill:rgb(212,0,0);fill-rule:nonzero;"/>
        <path d="M141.695,1064.43C183.041,1024.09 210.187,980.104 236.154,937.806C258.909,984.348 291.587,1025.07 326.924,1064.43C289.115,1103.46 259.825,1145.2 236.254,1189.08C210.149,1144.1 182.652,1103.37 141.695,1064.43Z" style="fill:rgb(212,0,0);fill-rule:nonzero;"/>
        <path d="M374.052,443.84C415.386,403.511 442.532,359.53 468.498,317.231C491.266,363.77 523.944,404.489 559.281,443.84C521.472,482.878 492.169,524.625 468.611,568.505C442.494,523.521 415.009,482.79 374.052,443.84Z" style="fill:rgb(212,0,0);fill-rule:nonzero;"/>
        <path d="M606.422,236.304C647.755,195.975 674.901,151.982 700.868,109.683C723.636,156.234 756.313,196.953 791.638,236.304C753.842,275.342 724.539,317.089 700.981,360.969C674.864,315.985 647.367,275.254 606.422,236.304Z" style="fill:rgb(212,0,0);fill-rule:nonzero;"/>
        <path d="M606.422,650.98C647.755,610.642 674.901,566.662 700.868,524.363C723.636,570.902 756.313,611.621 791.638,650.98C753.842,690.016 724.539,731.756 700.981,775.637C674.864,730.656 647.367,689.922 606.422,650.98Z" style="fill:rgb(212,0,0);fill-rule:nonzero;"/>
        <path d="M606.422,1064.43C647.755,1024.09 674.901,980.104 700.868,937.806C723.636,984.348 756.313,1025.07 791.638,1064.43C753.842,1103.46 724.539,1145.2 700.981,1189.08C674.864,1144.1 647.367,1103.37 606.422,1064.43Z" style="fill:rgb(212,0,0);fill-rule:nonzero;"/>
        <path d="M374.052,858.112C415.386,817.772 442.532,773.789 468.498,731.49C491.266,778.033 523.944,818.75 559.281,858.112C521.472,897.147 492.169,938.888 468.611,982.769C442.494,937.786 415.009,897.054 374.052,858.112Z" style="fill:rgb(212,0,0);fill-rule:nonzero;"/>
        <path d="M39.729,273.335C56.664,256.814 67.778,238.801 78.416,221.464C87.749,240.532 101.133,257.216 115.61,273.335C100.117,289.329 88.113,306.427 78.466,324.403C67.766,305.975 56.501,289.291 39.729,273.335Z" style="fill:rgb(212,0,0);fill-rule:nonzero;"/>
        <path d="M30.12,156.849C30.785,138.622 37.497,131.773 50.718,122.239C40.181,114.75 35.728,103.749 36.631,94.366C38.801,71.674 56.677,60.321 76.145,60.81C95.627,61.312 112.423,76.491 113.728,92.986C114.869,107.337 110.517,114.249 100.155,121.8C112.461,131.974 120.326,138.672 120.025,156.636C119.724,174.599 104.169,195.975 77.049,196.627C49.928,197.279 29.456,175.088 30.12,156.849ZM105.838,156.912C107.004,140.403 92.139,129.264 75.368,129.101C59.022,128.926 44.408,142.624 44.408,157.439C44.408,173.37 63.413,182.013 75.706,182.063C90.621,182.113 104.834,171.137 105.838,156.912ZM100.481,97.853C100.795,83.954 87.736,73.982 74.276,74.383C62.296,74.747 49.602,83.729 49.589,95.345C49.589,109.896 64.015,117.146 76.334,117.422C87.498,117.673 100.23,108.365 100.481,97.853Z" style="fill:rgb(212,0,0);fill-rule:nonzero;"/>
        <path d="M893.604,1026.66C876.669,1043.19 865.555,1061.2 854.917,1078.54C845.585,1059.47 832.2,1042.78 817.724,1026.66C833.216,1010.67 845.221,993.573 854.867,975.597C865.568,994.025 876.832,1010.71 893.604,1026.66Z" style="fill:rgb(212,0,0);fill-rule:nonzero;"/>
        <path d="M903.213,1143.15C902.548,1161.38 895.837,1168.23 882.615,1177.77C893.152,1185.25 897.606,1196.26 896.702,1205.63C894.532,1228.33 876.669,1239.68 857.188,1239.19C837.707,1238.69 820.91,1223.51 819.605,1207.02C818.464,1192.67 822.817,1185.76 833.178,1178.2C820.872,1168.03 813.007,1161.33 813.308,1143.37C813.609,1125.41 829.164,1104.04 856.285,1103.38C883.405,1102.72 903.878,1124.92 903.213,1143.15ZM827.496,1143.09C826.329,1159.6 841.194,1170.74 857.966,1170.91C874.311,1171.08 888.925,1157.38 888.925,1142.56C888.925,1126.64 869.908,1117.99 857.627,1117.94C842.712,1117.89 828.487,1128.87 827.496,1143.09ZM832.852,1202.14C832.539,1216.05 845.597,1226.02 859.057,1225.62C871.037,1225.26 883.732,1216.28 883.732,1204.65C883.757,1190.11 869.306,1182.85 857,1182.58C845.835,1182.33 833.103,1191.64 832.852,1202.14Z" style="fill:rgb(212,0,0);fill-rule:nonzero;"/>
    </g>
</svg>
